X:1
T:Brookfield (1778)
T:William Billings, 1770 D minor                 Revised by William Billings, 1778
T:Isaac Watts, 1709 (Book 3, Hymn 1)                                88. 88. (L.M.)
T:Transcribed from The Singing-Master's Assistant, 1778
%%score [ 1 2 3 4 ]
L:1/8
M:3/2
K:F
V:1 treble nm="Tr." snm="Tr."
V:2 treble nm="C." snm="C."
V:3 treble-8 nm="T." snm="T."
V:4 bass nm="B." snm="B."
V:1
"_1. Twas on that dark, that doleful night, When powers of  earth    and  hell           a–rose,  Against  the      Son          of  God's        delight,  And  friends    be – trayed  him  to             his foes." A4 | %1
 A8 A4 | A8 c4 | A8 d4 | ^c8 c4 | (d3 e) f4 e4 | (f3 e) d4 c4 | (A4 B4) A4 | A8 A4 | (A4 G4) c4 | %10
 (B4 A4) G4 | A8 d4 | ^c8 c4 | (d3 e) f4 e4 | (f3 e) d4 c4 | (A4 B4) A4 | A8 |] %17
V:2
"_2. Before the mournful scene  be–gan, He  took        the  bread, and blessed, and broke; What love through all        his  ac    –   tions ran! What  won–drous  words   of   grace        he spoke!\n3. \"This is my bo – dy,   broke  for   sin;  Re–ceive,   and   eat       the   l i   –  ving food.\"  Then took  the    cup,       and   blessed  the wine,  \"Tis  the     new  cove – nant   in         my  blood.\"" D4 | %1
 F8 D4 | C8 C4 | (D4 E4) F4 | A8 A4 | A8 A4 | A8 G4 | (F2 A2 G2 F2) E4 | F8 D4 | (D4 G4) (F3 A) | %10
 (G3 F) E4 D4 | (D3 E F4) A4 | A8 A4 | A8 A4 | A8 A4 | (A4 G4) E4 | F8 |] %17
V:3
"_4. \"Do this, he cried, till time shall end, In  mem  –  ory    of      your   dy   –  ing  Friend; Meet at   the       ta     –     ble, and         re – cord  The love       of   your      de – par    –    ted   Lord.\"\n5.  Jesus, thy feast we  ce – le –brate, We show   thy    death,  we  sing     thy   name;  Till  thou  re   –  turn,        and  we         shall  eat   The mar –riage   sup  –  per    of           the  Lamb." A4 | %1
 d8 f4 | e8 (f3 e) | (d4 c4) d4 | e8 e4 | (f3 e d4) ^c4 | (d3 e f4) e4 | (f3 e) d4 ^c4 | d8 A4 | %9
 (F4 G4) A4 | (d4 c4) B4 | (A4 d4) f4 | e8 e4 | (f3 e) d4 ^c4 | (d3 e) f4 e4 | (d2 f2 e2 d2) ^c4 | %16
 d8 |] %17
V:4
 D,4 | D,8 D,4 | [A,,A,]8 [A,,A,]4 | (D,4 A,,4) D,4 | [A,,A,]8 [A,,A,]4 | D,8 A,,4 | D,8 E,4 | %7
 (F,4 G,4) A,4 | D,8 D,4 | (D,4 E,4) F,4 | (G,4 A,4) G,4 | (F,3 E,) D,4 D,4 | [A,,A,]8 [A,,A,]4 | %13
 D,8 A,,4 | D,8 [A,,A,]4 | ([F,,F,]4 [G,,G,]4) [A,,A,]4 | D,8 |] %17

